src/topics/icons/snap-svg.svg

<svg height="425" preserveAspectRatio="xMidYMid" viewBox="0 0 256 425" width="256" xmlns="http://www.w3.org/2000/svg" xmlns:xlink="http://www.w3.org/1999/xlink"><linearGradient id="a"><stop offset="0" stop-color="#002e3b"/><stop offset="1" stop-color="#002639"/></linearGradient><linearGradient id="b" x1="50%" x2="50%" xlink:href="#a" y1="-352.925786%" y2="96.717527%"/><linearGradient id="c" x1="50%" x2="50%" xlink:href="#a" y1="-2.807862%" y2="428.758892%"/><linearGradient id="d"><stop offset="0" stop-color="#00bc85"/><stop offset="1" stop-color="#149d91"/></linearGradient><radialGradient id="e" cx="16.423404%" cy="142.999709%" r="295.57111%" xlink:href="#d"/><radialGradient id="f" cx="16.423338%" cy="-42.999755%" r="357.003966%" xlink:href="#d"/><radialGradient id="g" cx="11.467033%" cy="-40.45805%" r="343.189366%"><stop offset="0" stop-color="#004473"/><stop offset="1" stop-color="#00345f"/></radialGradient><path d="m65.6992339 330.300644-65.59150044 32.083792 127.29255554 62.000406 127.639047-62.195032-65.758816-32.538545-61.928475 30.753445z" fill="url(#b)"/><path d="m57.6019991 98.1748765v-.020697l69.9292679-34.1065382 69.934443 34.1065382 57.538181-35.9555422-127.519193-62.1986373-127.484698 62.1796642v.0551942l57.5537042 35.9641653z" fill="url(#c)"/><path d="m.15618046 298.428426 62.91498154-30.803781 64.713631 32.042618-127.62861254 62.794708z" fill="url(#e)"/><path d="m196.677541 99.4103235c-.000001 33.5891715-.000002 100.7675155-.000002 100.7675155l-70.341277 34.423802 64.686172 32.338973 62.978483-30.796888-.000007-173.9529429-57.323369 35.9758022z" fill="url(#f)"/><path d="m255.003891 298.216498-197.4149146-98.250588.000001-101.7843682-57.5889774-35.951301v.9072835 172.7942727l255.003891 126.321691z" fill="url(#g)"/></svg>

<?xml version="1.0" encoding="UTF-8" standalone="no" ?>
<svg width="256px" height="425px" viewBox="0 0 256 425" version="1.1" xmlns="http://www.w3.org/2000/svg" xmlns:xlink="http://www.w3.org/1999/xlink" preserveAspectRatio="xMidYMid">
    <defs>
        <linearGradient x1="50%" y1="-352.925786%" x2="50%" y2="96.7175267%" id="linearGradient-1">
            <stop stop-color="#002E3B" offset="0%"></stop>
            <stop stop-color="#002639" offset="100%"></stop>
        </linearGradient>
        <linearGradient x1="50%" y1="-2.80786187%" x2="50%" y2="428.758892%" id="linearGradient-2">
            <stop stop-color="#002E3B" offset="0%"></stop>
            <stop stop-color="#002639" offset="100%"></stop>
        </linearGradient>
        <radialGradient cx="16.4234038%" cy="142.999709%" fx="16.4234038%" fy="142.999709%" r="295.57111%" id="radialGradient-3">
            <stop stop-color="#00BC85" offset="0%"></stop>
            <stop stop-color="#149D91" offset="100%"></stop>
        </radialGradient>
        <radialGradient cx="16.423338%" cy="-42.999755%" fx="16.423338%" fy="-42.999755%" r="357.003966%" id="radialGradient-4">
            <stop stop-color="#00BC85" offset="0%"></stop>
            <stop stop-color="#149D91" offset="100%"></stop>
        </radialGradient>
        <radialGradient cx="11.4670327%" cy="-40.4580495%" fx="11.4670327%" fy="-40.4580495%" r="343.189366%" id="radialGradient-5">
            <stop stop-color="#004473" offset="0%"></stop>
            <stop stop-color="#00345F" offset="100%"></stop>
        </radialGradient>
    </defs>
    <g>
        <path d="M65.6992339,330.300644 L0.107733463,362.384436 L127.400289,424.384842 L255.039336,362.18981 L189.28052,329.651265 L127.352045,360.40471 L65.6992339,330.300644 Z" fill="url(#linearGradient-1)"></path>
        <path d="M57.6019991,98.1748765 L57.6019991,98.1541795 L127.531267,64.0476413 L197.46571,98.1541795 L255.003891,62.1986373 L127.484698,0 L0,62.1796642 L0,62.2348584 L57.5537042,98.1990237 L57.6019991,98.1748765 L57.6019991,98.1748765 Z" fill="url(#linearGradient-2)"></path>
        <path d="M0.15618046,298.428426 L63.071162,267.624645 L127.784793,299.667263 L0.15618046,362.461971 L0.15618046,298.428426 Z" fill="url(#radialGradient-3)"></path>
        <path d="M196.677541,99.4103235 C196.67754,132.999495 196.677539,200.177839 196.677539,200.177839 L126.336262,234.601641 L191.022434,266.940614 L254.000917,236.143726 L254.00091,62.1907831 L196.677541,98.1665853 L196.677541,99.4103235 Z" fill="url(#radialGradient-4)"></path>
        <path d="M255.003891,298.216498 L57.5889764,199.96591 L57.5889774,98.1815418 L1.42108547e-14,62.2302408 L1.42108547e-14,63.1375243 L1.42108547e-14,235.931797 L255.003891,362.253488 L255.003891,298.216498 Z" fill="url(#radialGradient-5)"></path>
    </g>
</svg>
